X: 23477
T: Lewis And Molly's
R: jig
M: 6/8
K: Amajor
|:A2E ABc|~B2A F2E|FA(d d)cB|c2A B2c|
A2E ABc|~B2A F2E|d3 cBA|1 ~B3 AcB:|2 ~B3 Ace||
~f3 def|ecB BAB|c2B BAB|d2c B2A|~f3 def|
ecB BAB|1 ~c3 ~B3|BAG Aag:|2 ~c3 cBA|~B3 BcB||
Ac(a a)ga|fec ecB|Ac(a a)ga|~f3 ecB|
Ac(a a)ga|fec ecB|~c3 Bce|f2e c2B|
Ac(a a)ga|fec ecB|Ac(a a)ga|~f3 efg|
a3 gfe|fec ecB|~c3 Bce|f2e c2B||

